!!!!SEGMENT: Wil1003b-Missa_Queramus_cum_pastoribus-Gloria
!!!id: Wil1003b
!!!AGN: Mass; Gloria
!!!voices: 4
!!!OPR: Missa Queramus cum pastoribus
!!!COM: Adrian Willaert
!!!OTL: Gloria
**kern	**kern	**kern	**kern
*part4	*part3	*part2	*part1
*staff4	*staff3	*staff2	*staff1
*I"Bassus	*I"Tenor	*I"Altus	*I"Superius
*I'B	*I'T	*I'A	*I'S
*clefF4	*clefGv2	*clefG2	*clefG2
*k[b-]	*k[b-]	*k[b-]	*k[b-]
*F:	*F:	*F:	*F:
*M2/1	*M2/1	*M2/1	*M2/1
*met(C|)	*met(C|)	*met(C|)	*met(C|)
=1	=1	=1	=1
!!section: Et in terra pax
!!!OMD: Et in terra pax
0r	0r	0r	1.cc
.	.	.	2cc
=2	=2	=2	=2
0r	0r	1r	1cc
.	.	[1f	1f
=3	=3	=3	=3
0r	0r	2f]	1.cc
.	.	2f	.
.	.	1f	.
.	.	.	2dd
=4	=4	=4	=4
0r	0r	1B-y	2b-y
.	.	.	2b-y
.	.	[1f	2.a
.	.	.	4b-y
=5	=5	=5	=5
0r	0r	2f]	2cc
.	.	2f	2.dd
.	.	1e	.
.	.	.	4cc
.	.	.	2cc
=6	=6	=6	=6
0r	0r	1d	2r
.	.	.	2f
.	.	1c	2g
.	.	.	2a
=7	=7	=7	=7
0r	0r	2r	2b-y
.	.	2c	2g
.	.	2d	2f
.	.	2e	[2cc
=8	=8	=8	=8
1.F	0r	1f	4cc]
.	.	.	4b-y
.	.	.	4a
.	.	.	4g
.	.	1d	2f
2F	.	.	[2a
=9	=9	=9	=9
1F	1.c	2c	2a]
.	.	1f	4g
.	.	.	4f
1C	.	.	1g
.	2c	2e	.
=10	=10	=10	=10
1.F	1c	0f	0a
.	1F	.	.
2D	.	.	.
=11	=11	=11	=11
2E	1.c	0r	0r
2.F	.	.	.
4G	.	.	.
[2A	2c	.	.
=12	=12	=12	=12
4A]	1B-y	0r	0r
4G	.	.	.
1G	.	.	.
.	1A	.	.
2F#i	.	.	.
=13	=13	=13	=13
2G	1G	0r	0r
2C	.	.	.
2D	2r	.	.
2E	2G	.	.
=14	=14	=14	=14
2F	2A	1r	2r
2G	2B-y	.	1g
1C	2c	1c	.
.	2A	.	2a
=15	=15	=15	=15
2r	1G	2d	2b-y
1C	.	2e	2.cc
.	2r	2e	.
.	.	.	4b-y
[2D	[2F	[2f	4a
.	.	.	4g
=16	=16	=16	=16
2D]	2F]	2f]	2a
2E	2G	4e	2.g
.	.	4d	.
2F	2A	2c	.
.	.	.	4f
2BB-y	2B-y	2d	2f
=17	=17	=17	=17
1C	1G	1c	2f
.	.	.	2e
[1F	1F	2r	2.f
.	.	2c	.
.	.	.	4g
=18	=18	=18	=18
1F]	2r	2c	4a
.	.	.	4b-y
.	2F	2c	1a
1D	2F	1d	.
.	2F	.	4g
.	.	.	4f
=19	=19	=19	=19
2r	1G	1r	1e
2C	.	.	.
2.C	2G	2r	1r
.	2G	2c	.
4D	.	.	.
=20	=20	=20	=20
2E	2G	2c	2r
2F	1A	2c	1f
[1D	.	1d	.
.	2F	.	2f
=21	=21	=21	=21
0D]	2.F	2d	2f
.	.	2d	2f
.	4G	.	.
.	2A	2d	1f
.	2B-y	2d	.
=22	=22	=22	=22
2r	0G	2d	1g
1C	.	1e	.
.	.	.	1g
2C	.	[2c	.
=23	=23	=23	=23
2.C	1r	2c]	2g
.	.	2c	2g
4D	.	.	.
2E	2r	2c	2g
2F	2F	2c	[2a
=24	=24	=24	=24
2D	2.F	2d	2a]
2D	.	2d	2f
.	4G	.	.
2.D	2A	2d	2.f
.	2B-y	2d	.
4E	.	.	4g
=25	=25	=25	=25
2F	2A	2d	2a
2G	2G	2d	2b-y
[1C	[1c	[1e	1g
=26	=26	=26	=26
0C]	1c]	0e]	2r
.	.	.	2g
.	1c	.	2.g
.	.	.	4a
=27	=27	=27	=27
1r	2B-y	2r	2b-y
.	2A	2c	2cc
1F	2.c	2.c	1a
.	4B-y	4d	.
=28	=28	=28	=28
2E	2c	2e	1r
2D	2d	2f	.
2.F	[1A	1c	1cc
4E	.	.	.
=29	=29	=29	=29
2F	2A]	1r	2cc
2G	1d	.	1b-y
1D	.	1f	.
.	4c	.	2a
.	4B-y	.	.
=30	=30	=30	=30
0r	1A	2f	2.cc
.	.	1e	.
.	.	.	4b-y
.	1r	.	2cc
.	.	2d	2dd
=31	=31	=31	=31
0r	0r	2.f	1a
.	.	4e	.
.	.	2f	[1dd
.	.	2g	.
=32	=32	=32	=32
1.BB-y	1r	1d	2dd]
.	.	.	2dd
.	1f	1d	1dd
2BB-y	.	.	.
=33	=33	=33	=33
1BB-y	2f	2d	1b-y
.	2f	1d	.
2.D	1f	.	[1a
.	.	4c	.
4E	.	4B-y	.
=34	=34	=34	=34
2F	1d	2A	2a]
2G	.	2B-y	1dd
2.F	[1f	2A	.
.	.	[2a	4cc
4G	.	.	4b-y
=35	=35	=35	=35
2A	2f]	2a]	2cc
2B-y	2f	2d	2.dd
1F	1f	1a	.
.	.	.	4cc
.	.	.	[2cc
=36	=36	=36	=36
1G	1d	1g	2cc]
.	.	.	2bnXi
1F	[1f	1a	1cc
=37	=37	=37	=37
1.F	1f]	2.A	1cc
.	.	4B-y	.
.	1f	2c	2a
2BB-y	.	2d	[2b-y
=38	=38	=38	=38
1F	1f	1c	4b-]
.	.	.	4a
.	.	.	1a
2C	1e	1c	.
2c	.	.	2g
=39	=39	=39	=39
2c	2c	2A	2a
2G	2.d	2B-y	1g
1A	.	1c	.
.	4c	.	.
.	[2c	.	2f#i
=40	=40	=40	=40
1G	2c]	1d	1.g
.	2BnXi	.	.
1C	1c	2e	.
.	.	2e	[2cc
=41	=41	=41	=41
1F	2r	1.f	4cc]
.	.	.	4b-y
.	2c	.	1a
1r	2d	.	.
.	[2f	4e	4g
.	.	4d	4f
=42	=42	=42	=42
1r	2f]	1c	1g
.	2e	.	.
1F	2d	1f	1a
.	[2c	.	.
=43	=43	=43	=43
2F	2c]	0r	0r
2G	2B-y	.	.
2F	2.A	.	.
2F	.	.	.
.	4G	.	.
=44	=44	=44	=44
2F	4A	0r	1cc
.	4B-y	.	.
2E	1c	.	.
1D	.	.	2dd
.	2BnXi	.	[2ff
=45	=45	=45	=45
0r	1c	1r	2ff]
.	.	.	2ee
.	1F	1f	2dd
.	.	.	[2cc
=46	=46	=46	=46
1r	0r	2f	2cc]
.	.	2g	2b-y
2.D	.	2f	2.a
.	.	2f	.
4E	.	.	4g
=47	=47	=47	=47
4F	0r	2f	4a
4G	.	.	4b-y
2A	.	2e	1cc
2F	.	1d	.
2G	.	.	2bnXi
=48	=48	=48	=48
2C	2r	2r	1cc
2.F	2f	1a	.
.	2f	.	2r
4G	.	.	.
4A	2f	2a	2cc
4B-y	.	.	.
=49	=49	=49	=49
2c	1e	2g	2cc
2A	.	2a	2cc
2.B-y	2d	2.f	1dd
.	[2f	.	.
4A	.	4g	.
=50	=50	=50	=50
1F	2f]	2a	[0cc
.	4e	2a	.
.	4d	.	.
1c	2e	2a	.
.	[2f	2a	.
=51	=51	=51	=51
2c	2f]	1g	1cc]
2c	2e	.	.
1d	1f	2f	1r
.	.	2a	.
=52	=52	=52	=52
1c	0r	2a	0r
.	.	2.g	.
2.c	.	.	.
.	.	4f	.
.	.	2e	.
4c	.	.	.
=53	=53	=53	=53
2B-y	2r	2d	0r
2A	2c	2f	.
1G	1d	2g	.
.	.	[2b-y	.
=54	=54	=54	=54
1F	1f	2b-]	0r
.	.	2a	.
2G	2e	1g	.
[2B-y	2d	.	.
=55	=55	=55	=55
2B-]	2r	2f	0r
2A	2c	2a	.
2G	2d	2b-y	.
2F	2f	2a	.
=56	=56	=56	=56
2r	4e	1g	0r
.	4d	.	.
2C	4c	.	.
.	4B-y	.	.
2D	2A	1f	.
[2F	[2d	.	.
=57	=57	=57	=57
2F]	4d]	0r	2r
.	4c	.	.
2E	1c	.	2cc
1D	.	.	2ff
.	2BnXi	.	2ff
=58	=58	=58	=58
1C	2c	1.g	1ee
.	2e	.	.
1C	2e	.	1cc
.	2e	2g	.
=59	=59	=59	=59
2F	1f	1a	2r
2F	.	.	2cc
1F	[1c	1a	1ff
=60	=60	=60	=60
1C	1c]	1g	1ee
2.F	2r	[1f	1cc
.	2A	.	.
4E	.	.	.
=61	=61	=61	=61
2D	1A	2f]	2r
2C	.	2e	2cc
1BB-y	1B-y	1d	2ff
.	.	.	2ff
=62	=62	=62	=62
2C	2G	2c	2.ee
1C	1c	2G	.
.	.	.	8ddL
.	.	.	8ccJ
.	.	4G	2ee
.	.	4A	.
[2BB-y	2d	4B-y	[2dd
.	.	4c	.
=63	=63	=63	=63
2BB-]	2f	2d	4dd]
.	.	.	4cc
2C	2e	2.g	1cc
1G	1d	.	.
.	.	4f	.
.	.	2d	2bnXi
=64	=64	=64	=64
[0Cl	[0cl	2e	[0ccl
.	.	2c	.
.	.	2.e	.
.	.	4f	.
=65	=65	=65	=65
0C]	0c]	0gl	0cc]
=66||	=66||	=66||	=66||
*M2/1	*M2/1	*M2/1	*M2/1
*met(C|)	*met(C|)	*met(C|)	*met(C|)
!!section: Qui tollis
!!!OMD: Qui tollis
0r	1c	0r	0r
.	2c	.	.
.	2A	.	.
=67	=67	=67	=67
0r	1B-y	1f	0r
.	2A	2f	.
.	2B-y	2d	.
=68	=68	=68	=68
0r	1c	1e	0r
.	1d	2d	.
.	.	[2f	.
=69	=69	=69	=69
1F	1c	2f]	0r
.	.	4e	.
.	.	4d	.
2F	1r	2c	.
2D	.	[2d	.
=70	=70	=70	=70
1E	0r	2d]	1r
.	.	2c	.
2D	.	2f	2r
2E	.	[2g	2cc
=71	=71	=71	=71
1F	0r	4g]	2cc
.	.	4f	.
.	.	1f	2a
1G	.	.	1b-y
.	.	2e	.
=72	=72	=72	=72
1F	1r	2f	2a
.	.	2c	1cc
2.C	1c	2.e	.
.	.	.	4b-y
4D	.	4f	4a
=73	=73	=73	=73
2E	2c	2g	2g
2F	2A	2f	1a
1G	1B-y	2.d	.
.	.	.	2g
.	.	4e	.
=74	=74	=74	=74
2F	2A	1f	2cc
2D	2B-y	.	2.dd
1A	1c	2e	.
.	.	.	4cc
.	.	2f	[2cc
=75	=75	=75	=75
1G	1d	0g	2cc]
.	.	.	2bnXi
1C	[1c	.	1cc
=76	=76	=76	=76
1.F	1c]	1c	1.a
.	[1c	[1f	.
2F	.	.	2a
=77	=77	=77	=77
1F	2c]	2f]	1a
.	2c	2f	.
1C	1c	1e	1g
=78	=78	=78	=78
1F	1A	1c	1a
2F	1c	1f	2a
[2F	.	.	[2a
=79	=79	=79	=79
2F]	2c	2f	2a]
2F	1c	1f	2a
1F	.	.	1a
.	2c	2f	.
=80	=80	=80	=80
1C	1c	1e	2.g
.	.	.	4a
1G	2.B-y	2.d	4b-y
.	.	.	4cc
.	.	.	[2dd
.	4c	4e	.
=81	=81	=81	=81
2.D	4d	2f	2dd]
.	4e	.	.
.	1f	1d	4cc
4E	.	.	4b-y
2F	.	.	2a
2G	2e	4c	[2b-y
.	.	4B-y	.
=82	=82	=82	=82
1F	2d	0f	2b-]
.	2c	.	2a
1BB-y	[1d	.	1b-y
=83	=83	=83	=83
2.D	1d]	2r	1a
.	.	2f	.
4E	.	.	.
1F	1c	2f	[1a
.	.	[2f	.
=84	=84	=84	=84
0r	0r	2f]	2a]
.	.	2d	2b-y
.	.	2e	2cc
.	.	2d	2dd
=85	=85	=85	=85
2r	1r	1f	0cc
2F	.	.	.
2F	[1A	2.c	.
[2F	.	.	.
.	.	4B-y	.
=86	=86	=86	=86
2F]	2A]	2c	1f
2D	2B-y	2d	.
2E	2c	2G	2r
2D	2d	[2A	[2f
=87	=87	=87	=87
1F	0c	4A]	4f]
.	.	4B-y	4g
.	.	4c	1a
.	.	4d	.
2.C	.	2e	.
.	.	2c	[2g
4E	.	.	.
=88	=88	=88	=88
1D	1F	2c	4g]
.	.	.	4f
.	.	2BnXi	1f
2C	1G	1c	.
2C	.	.	2e
=89	=89	=89	=89
2D	2.F	1r	1f
1F	.	.	.
.	4G	.	.
.	4A	1c	1r
.	4B-y	.	.
2E	[2c	.	.
=90	=90	=90	=90
1D	4c]	2d	1f
.	4BnXi	.	.
.	4Bni	1f	.
.	4A	.	.
1C	1c	.	1g
.	.	2e	.
=91	=91	=91	=91
1D	0r	2.d	2f
.	.	.	2f
.	.	8cL	.
.	.	8B-yJ	.
1r	.	2c	2a
.	.	2d	2b-y
=92	=92	=92	=92
0F	0r	2A	2.cc
.	.	2.a	.
.	.	.	4b-y
.	.	.	2cc
.	.	4g	.
.	.	4f	[2dd
.	.	4e	.
=93	=93	=93	=93
0G	2r	1d	4dd]
.	.	.	4cc
.	2B-y	.	4b-y
.	.	.	4a
.	2d	1g	1b-y
.	2e	.	.
=94	=94	=94	=94
2F	2.f	1.c	2a
2F	.	.	1cc
.	4e	.	.
2A	2f	.	.
2B-y	[2g	2d	4b-y
.	.	.	4a
=95	=95	=95	=95
2.c	4g]	1e	2g
.	4f	.	.
.	4e	.	1cc
4B-y	4d	.	.
2c	2e	1r	.
[2d	2d	.	4b-y
.	.	.	4a
=96	=96	=96	=96
4d]	1.f	1r	2b-y
4c	.	.	.
4B-y	.	.	1a
4A	.	.	.
1B-y	.	2r	.
.	4e	[2d	2g
.	4d	.	.
=97	=97	=97	=97
1A	1e	2d]	2a
.	.	2c#i	1a
1r	2r	1d	.
.	[2f	.	2b-y
=98	=98	=98	=98
0r	2f]	1A	1.cc
.	2e	.	.
.	1f	2r	.
.	.	[2a	2dd
=99	=99	=99	=99
0r	1c	2a]	1ee
.	.	2g	.
.	1r	2.a	[1cc
.	.	4g	.
=100	=100	=100	=100
1A	1r	2e	2cc]
.	.	1f	4b-y
.	.	.	4a
2G	2r	.	2b-y
2A	[2c	2e	2cc
=101	=101	=101	=101
2F	2c]	2f	2a
1G	2B-y	2d	2.b-y
.	2c	2e	.
.	.	.	4a
2F	2A	2f	[2a
=102	=102	=102	=102
1G	1B-y	2.d	2a]
.	.	.	2g
.	.	4e	.
1D	2A	1f	2.a
.	2A	.	.
.	.	.	4b-y
=103	=103	=103	=103
1r	2A	1r	2cc
.	2B-y	.	2dd
1F	1c	2r	1a
.	.	2f	.
=104	=104	=104	=104
2A	2c	2e	0r
2B-y	2d	2d	.
1c	1e	2g	.
.	.	2g	.
=105	=105	=105	=105
1A	1c	2f	1r
.	.	2e	.
2.B-y	1r	2.d	2r
.	.	.	2b-y
4c	.	4e	.
=106	=106	=106	=106
2d	0r	2f	2a
2G	.	1g	2g
1A	.	.	2cc
.	.	2f#i	2cc
=107	=107	=107	=107
0r	0r	2g	2b-y
.	.	2d	2a
.	.	2e	2.g
.	.	[2g	.
.	.	.	4a
=108	=108	=108	=108
0r	0r	2g]	2b-y
.	.	2c	1cc
.	.	1d	.
.	.	.	2bnXi
=109	=109	=109	=109
1r	1r	2r	0cc
.	.	2a	.
2r	1f	2a	.
2F	.	2a	.
=110	=110	=110	=110
2B-y	2f	2f	1dd
2B-y	2d	2g	.
2.A	2e	1c	1cc
.	2e	.	.
4G	.	.	.
=111	=111	=111	=111
1F	2.A	1.a	2r
.	.	.	2cc
.	4B-y	.	.
1F	1c	.	2ff
.	.	2a	2ff
=112	=112	=112	=112
1G	1r	2g	2ee
.	.	2b-y	2dd
2C	2e	2a	1cc
2C	2e	2g	.
=113	=113	=113	=113
2D	2d	1f	0r
2D	2f	.	.
2C	2e	1r	.
[2F	2d	.	.
=114	=114	=114	=114
4F]	1c	2f	0r
4G	.	.	.
4A	.	2f	.
4B-y	.	.	.
4c	2r	2e	.
4A	.	.	.
2B-y	[2d	2g	.
=115	=115	=115	=115
1F	4d]	2.f	2a
.	4c	.	.
.	2c	.	2a
.	.	4e	.
1G	1B-y	1d	2g
.	.	.	2b-y
=116	=116	=116	=116
1C	1c	1e	2a
.	.	.	2g
1F	1r	1c	2f
.	.	.	2cc
=117	=117	=117	=117
1r	2r	1d	2cc
.	2f	.	2bnXi
1A	2f	2c	1cc
.	2e	2c	.
=118	=118	=118	=118
1F	1f	2c	1a
.	.	2f	.
1G	1B-y	2f	2g
.	.	2e	2b-y
=119	=119	=119	=119
1F	2c	1f	2.a
.	2A	.	.
.	.	.	4g
1r	2B-y	2r	2f
.	2c	[2e	2cc
=120	=120	=120	=120
1r	1G	2e]	2cc
.	.	2d	2bnXi
1A	1c	2f	1cc
.	.	[2e	.
=121	=121	=121	=121
2G	2r	2e]	0r
2B-y	2f	2d	.
2A	2f	2c	.
2G	2e	2B-y	.
=122	=122	=122	=122
2F	2f	1c	1a
2c	2e	.	.
2c	2c	1r	2g
2B-y	2f	.	2b-y
=123	=123	=123	=123
1c	2f	2r	2a
.	2e	2g	2g
2r	2.f	[1a	2f
2F	.	.	2cc
.	4e	.	.
=124	=124	=124	=124
2F	1d	2a]	2cc
2G	.	2g	2bnXi
1A	2r	2e	2.cc
.	2c	2e	.
.	.	.	8b-yL
.	.	.	8aJ
=125	=125	=125	=125
2r	1c	2e	2g
2A	.	2f	2cc
2G	1d	1g	2b-y
2B-y	.	.	2dd
=126	=126	=126	=126
2A	1e	2r	2cc
2G	.	2g	2b-y
1F	2r	2a	2cc
.	2c	2f	[2ff
=127	=127	=127	=127
2r	1c	2.g	2ff]
2c	.	.	2ee
.	.	8fL	.
.	.	8eJ	.
2c	1d	2f	1dd
2BnXi	.	[2g	.
=128	=128	=128	=128
2c	2e	2g]	1cc
2F	1f	2f	.
2B-y	.	1d	2.f
2B-y	4e	.	.
.	4d	.	4g
=129	=129	=129	=129
2A	2c	2e	4a
.	.	.	4b-y
1F	2d	2.f	1a
.	2.c	.	.
.	.	4c	.
2C	.	2e	[2g
.	4B-y	.	.
=130	=130	=130	=130
2D	2A	1d	4g]
.	.	.	4f
2BB-y	2B-y	.	1f
1C	1G	1c	.
.	.	.	2e
=131	=131	=131	=131
0Fl	0Fl	0cl	0fl
==	==	==	==
*-	*-	*-	*-
!!!system-decoration: s1,s2,s3,s4
!!!RDF**kern: i = editorial accidental
!!!RDF**kern: l = terminal long
!!!ENC: Maura Sugg
!!!END: 2026/3/20
!!!EED: Benjamin Ory
!!!EEV: 2026/03/20
!!!YEC: Copyright 2026 Irene Holzer, All Rights Reserved
!!!ONB: Translated from MusicXML on 2026/03/20
!!!verovio: header encoded
!!!header-left: Edited by Irene Holzer\n
!!!header-right:
!!!header-center: